X:1
T:Banish Misfortune/Behind The Haystack
M:6/8
L:1/8
K: Emix
P:A
|:agf ecB| c2f ecB| A2F FGF| AGA BAB|
cBc ecB| cBc efg|agf ecB| cf^e f3:|
|:a2f f^ef| a2b 'cba| g2e ede|g2a bag|
a2b 'cba| g2a bag|agf ecB|cf^e f3:|
|:a2b g2a| f2g e2f|cdc BcB| A2A BGF|
e3 ecB| cBc efg| agf ecB| cf^e f3:|
P:B
K: Emaj
|:f2g afd|f2g afd|cAG ~G3|cAG GAc|
d2e fdB|d2e fdB|AFD ~D3|AFD DFA:|
|:~d3 dcA|cde fed|cAG ~G3|cAG GAc|
~B3 BAF|ABc dcB|AFD ~D3|1 AFD DFA:|2 AFD D2f||
|:~b3 a'ca|gfg afd|cAG ~G3|cAG G2a|
~g3 faf|ede fdB|AFD ~D3|1 AFD D2f:|2 AFD DFA||

